X:97
T:La Belle Jeannette. RHu.097
S:R.Hughes MS,1823,Whitchurch,Shrops.
A:Whitchurch , Shropshire
Z:Neil Brookes 2006
M:2/4
L:1/8
Q:1/4=100
R:Country Dance
K:G
G>ABB|ccA2|d/e/d/c/ B/c/B/A/|G/A/B/c/ BA|\
G>ABB|ccA2|d/e/d/c/ BG|B/A/G/F/ G2::!
G/A/B/c/ dB|cdBG|G/A/B/c/ dB|cdg2|\
G/A/B/c/ dB|cdBG|G/A/B/c/ dB|cd”D.C.”g2:|

